assets/icons/usb-stick.svg

<?xml version="1.0" encoding="UTF-8" standalone="no"?>
<svg viewBox="0 0 24 24" height="24" width="24" version="1.1" id="svg8" sodipodi:docname="removable.svg" inkscape:version="1.1 (ce6663b3b7, 2021-05-25)"
   xmlns:inkscape="http://www.inkscape.org/namespaces/inkscape"
   xmlns:sodipodi="http://sodipodi.sourceforge.net/DTD/sodipodi-0.dtd"
   xmlns="http://www.w3.org/2000/svg"
   xmlns:svg="http://www.w3.org/2000/svg">
   <defs id="defs12" />
   <sodipodi:namedview id="namedview10" pagecolor="#ffffff" bordercolor="#666666" borderopacity="1.0" inkscape:pageshadow="2" inkscape:pageopacity="0.0" inkscape:pagecheckerboard="0" showgrid="true" width="24px" inkscape:zoom="28" inkscape:cx="9.4107143" inkscape:cy="9.7678571" inkscape:window-width="1920" inkscape:window-height="1016" inkscape:window-x="0" inkscape:window-y="27" inkscape:window-maximized="1" inkscape:current-layer="svg8">
      <inkscape:grid type="xygrid" id="grid823" />
      <inkscape:grid type="xygrid" id="grid825" dotted="true" spacingx="0.5" spacingy="0.5" empspacing="10" />
   </sodipodi:namedview>
   <path id="rect847" style="fill:#808080;fill-rule:evenodd;stroke-width:0.5;stroke-linecap:round;stroke-linejoin:round;fill-opacity:1" d="M 8 2 L 8 6 L 9 6 L 9 3 L 15 3 L 15 6 L 16 6 L 16 2 L 8 2 z M 10 4 L 10 5 L 11 5 L 11 4 L 10 4 z M 13 4 L 13 5 L 14 5 L 14 4 L 13 4 z M 7.7871094 7 C 7.1101636 7.0055872 6.5365074 7.0481526 6.0273438 7.3027344 C 5.6879015 7.4724556 5.3973385 7.765168 5.2304688 8.140625 C 5.063599 8.516082 5 8.9583339 5 9.5 L 5 19.5 C 5 20.041666 5.063599 20.483918 5.2304688 20.859375 C 5.3973385 21.234832 5.6879015 21.527544 6.0273438 21.697266 C 6.7062285 22.036708 7.500001 22 8.5 22 L 15.5 22 C 16.499999 22 17.293771 22.03671 17.972656 21.697266 C 18.312099 21.527544 18.602661 21.234832 18.769531 20.859375 C 18.936401 20.483918 19 20.041666 19 19.5 L 19 9.5 C 19 8.9583339 18.9364 8.516082 18.769531 8.140625 C 18.602661 7.765168 18.312099 7.4724556 17.972656 7.3027344 C 17.293771 6.963292 16.499999 7 15.5 7 L 8.5 7 C 8.2500002 7 8.012758 6.9981376 7.7871094 7 z M 8.5 8 L 15.5 8 C 16.499999 8 17.20623 8.036708 17.527344 8.1972656 C 17.687901 8.2775446 17.772339 8.3598326 17.855469 8.546875 C 17.938599 8.7339174 18 9.0416671 18 9.5 L 18 19.5 C 18 19.958333 17.9386 20.266083 17.855469 20.453125 C 17.772339 20.640167 17.687901 20.722456 17.527344 20.802734 C 17.20623 20.963291 16.499999 21 15.5 21 L 8.5 21 C 7.500001 21 6.7937706 20.96329 6.4726562 20.802734 C 6.3120991 20.722454 6.2276612 20.640167 6.1445312 20.453125 C 6.0614013 20.266083 6 19.958333 6 19.5 L 6 9.5 C 6 9.0416671 6.061401 8.7339174 6.1445312 8.546875 C 6.2276612 8.3598326 6.3120991 8.2775442 6.4726562 8.1972656 C 6.7937705 8.0367085 7.500001 8 8.5 8 z " />
</svg>

<svg height="24" width="24" xmlns="http://www.w3.org/2000/svg"><path style="fill:gray;stroke-width:.5;stroke-linecap:round;stroke-linejoin:round;fill-opacity:1" d="M8 2v4h1V3h6v3h1V2H8zm2 2v1h1V4h-1zm3 0v1h1V4h-1zM7.787 7c-.677.006-1.25.048-1.76.303-.34.17-.63.462-.797.838C5.064 8.516 5 8.958 5 9.5v10c0 .542.064.984.23 1.36.167.375.458.668.797.837.68.34 1.473.303 2.473.303h7c1 0 1.794.037 2.473-.303.34-.17.63-.462.797-.838.166-.375.23-.817.23-1.359v-10c0-.542-.064-.984-.23-1.36a1.72 1.72 0 0 0-.797-.837C17.293 6.963 16.5 7 15.5 7h-7c-.25 0-.487-.002-.713 0zM8.5 8h7c1 0 1.706.037 2.027.197.16.08.245.163.328.35.084.187.145.495.145.953v10c0 .458-.061.766-.145.953a.615.615 0 0 1-.328.35c-.32.16-1.027.197-2.027.197h-7c-1 0-1.706-.037-2.027-.197a.615.615 0 0 1-.328-.35C6.06 20.266 6 19.958 6 19.5v-10c0-.458.061-.766.145-.953a.615.615 0 0 1 .328-.35C6.793 8.037 7.5 8 8.5 8z"/></svg>
